X:57
T:Greenfields of America
M:4/4
L:1/8
K:A
Q:1/2=56
cB |: "A" (ABc)d e2 (3(efg | ag)af e(cAc) | "D" vd2 (fd "A" c2) e(c |
"E" B2) B(c BA) vF2 | "A" (uaga)(e fg)(af) | e(cBA) "D" (BA) F2 | "A" (vABA)(F EF)A(B |
|1 "C#m" ce)vc(B "A" A2) cB :|2 "C#m" ce)c(B "A" A2) B(c |: "D" d2) f(d "A" c2) e(c | "E" B2) B(c BA)FG |
"A" (vABA)(F EF)A(B | cA)c(A "E" B2) B(c | "D" d2) f(d "A" c2) e(c | "E" B2) B(c BA)FE |
"A" (vABA)(F EF)A(B |1 "C#m" ce)c(B "A" A2) B(c :|2 "C#m" ce)cB "A" A2 A2 |: "E" vB2 (Bc BA)FG |
"A" ABA(F EF)A2 | "E" B2 B(c BA)FG | "A" AGA(F E2) A(c | \
M:6/4
L:1/8
"E" Bc) B2 "A" uA4 cB :|

